Numix/64/mimetypes/image-x-adobe-dng.svg

<?xml version="1.0" encoding="UTF-8" standalone="no"?>
<svg
   xmlns:dc="http://purl.org/dc/elements/1.1/"
   xmlns:cc="http://creativecommons.org/ns#"
   xmlns:rdf="http://www.w3.org/1999/02/22-rdf-syntax-ns#"
   xmlns:svg="http://www.w3.org/2000/svg"
   xmlns="http://www.w3.org/2000/svg"
   xmlns:sodipodi="http://sodipodi.sourceforge.net/DTD/sodipodi-0.dtd"
   xmlns:inkscape="http://www.inkscape.org/namespaces/inkscape"
   width="64px"
   height="64px"
   viewBox="0 0 64 64"
   version="1.1"
   id="svg2"
   inkscape:version="0.91 r13725"
   sodipodi:docname="image-x-adobe-dng.svg">
  <metadata
     id="metadata17">
    <rdf:RDF>
      <cc:Work
         rdf:about="">
        <dc:format>image/svg+xml</dc:format>
        <dc:type
           rdf:resource="http://purl.org/dc/dcmitype/StillImage" />
        <dc:title />
      </cc:Work>
    </rdf:RDF>
  </metadata>
  <defs
     id="defs15">
    <clipPath
       id="clipPath-258929573">
      <g
         transform="translate(0,-1004.3622)"
         id="g17">
        <path
           inkscape:connector-curvature="0"
           d="m -24,13 c 0,1.105 -0.672,2 -1.5,2 -0.828,0 -1.5,-0.895 -1.5,-2 0,-1.105 0.672,-2 1.5,-2 0.828,0 1.5,0.895 1.5,2 z"
           transform="matrix(15.333333,0,0,11.5,414.99999,878.8622)"
           style="fill:#1890d0"
           id="path19" />
      </g>
    </clipPath>
  </defs>
  <sodipodi:namedview
     pagecolor="#ffffff"
     bordercolor="#666666"
     borderopacity="1"
     objecttolerance="10"
     gridtolerance="10"
     guidetolerance="10"
     inkscape:pageopacity="0"
     inkscape:pageshadow="2"
     inkscape:window-width="1920"
     inkscape:window-height="1013"
     id="namedview13"
     showgrid="false"
     inkscape:zoom="1"
     inkscape:cx="25.142691"
     inkscape:cy="7.0724412"
     inkscape:window-x="0"
     inkscape:window-y="27"
     inkscape:window-maximized="1"
     inkscape:current-layer="svg2">
    <inkscape:grid
       type="xygrid"
       id="grid4151" />
  </sodipodi:namedview>
  <path
     inkscape:connector-curvature="0"
     id="path5"
     d="M 10.671875,0 C 9.296875,0 8,1.355469 8,2.789062 L 8,61.210938 C 8,62.566406 9.375,64 10.671875,64 l 42.65625,0 C 54.625,64 56,62.566406 56,61.210938 L 56,18 38,0 Z m 0,0"
     style="fill:#35a14c;fill-opacity:1;fill-rule:nonzero;stroke:none" />
  <path
     inkscape:connector-curvature="0"
     id="path7"
     d="m 42,18 14,14 0,-14 z m 0,0"
     style="fill:#000000;fill-opacity:0.19607801;fill-rule:nonzero;stroke:none" />
  <path
     inkscape:connector-curvature="0"
     id="path9"
     d="M 38,0 55.984375,18 40.757812,18 C 39.410156,18 38,16.574219 38,15.226562 Z m 0,0"
     style="fill:#ffffff;fill-opacity:0.39215698;fill-rule:nonzero;stroke:none" />
  <g
     transform="matrix(0.80051185,0,0,0.80026785,12.788106,12.78717)"
     style="fill:#ffffff;fill-opacity:1"
     id="g59">
    <g
       id="g61"
       clip-path="url(#clipPath-258929573)"
       style="fill:#ffffff">
      <!-- color: #3d3d3d -->
      <g
         id="g63"
         style="fill:#ffffff">
        <path
           inkscape:connector-curvature="0"
           d="M 27.08,9.641 23.471,19.793 37.705,17.43 C 35.603,13.438 31.721,10.5 27.08,9.641 m 0,0"
           style="fill:#ffffff;fill-rule:nonzero;stroke:none"
           id="path65" />
        <path
           inkscape:connector-curvature="0"
           d="m 38.15,19.449 -10.738,1.988 9.199,10.98 c 2.457,-3.797 3.09,-8.586 1.527,-12.969 m 0.012,0"
           style="fill:#ffffff;fill-rule:nonzero;stroke:none"
           id="path67" />
        <path
           inkscape:connector-curvature="0"
           d="m 35.07,33.809 -7.121,-8.164 -5.05,13.344 c 4.566,0.195 9.09,-1.656 12.156,-5.18 m 0.012,0"
           style="fill:#ffffff;fill-rule:nonzero;stroke:none"
           id="path69" />
        <path
           inkscape:connector-curvature="0"
           d="m 20.922,38.36 3.617,-10.152 -14.242,2.363 c 2.109,3.996 5.996,6.934 10.625,7.789 m 0,0"
           style="fill:#ffffff;fill-rule:nonzero;stroke:none"
           id="path71" />
        <path
           inkscape:connector-curvature="0"
           d="M 9.852,28.559 20.586,26.571 11.387,15.591 C 8.934,19.392 8.297,24.177 9.86,28.56 m -0.008,0"
           style="fill:#ffffff;fill-rule:nonzero;stroke:none"
           id="path73" />
        <path
           inkscape:connector-curvature="0"
           d="m 12.926,14.207 7.121,8.164 5.05,-13.344 c -4.563,-0.195 -9.09,1.656 -12.152,5.18 m -0.016,0"
           style="fill:#ffffff;fill-rule:nonzero;stroke:none"
           id="path75" />
      </g>
    </g>
  </g>
  <path
     inkscape:connector-curvature="0"
     id="path13"
     d="M 8,48 8,61.33594 C 8,62.63281 9.375,64 10.664062,64 l 42.671876,0 C 54.625,64 56,62.63281 56,61.33594 L 56,48 Z m 0,0"
     style="fill:#000000;fill-opacity:0.19607801;fill-rule:nonzero;stroke:none" />
  <path
     inkscape:connector-curvature="0"
     id="path4581"
     style="font-style:normal;font-variant:normal;font-weight:bold;font-stretch:normal;font-size:medium;line-height:125%;font-family:'Ubuntu Mono';-inkscape-font-specification:'Ubuntu Mono, Bold';text-align:start;letter-spacing:0px;word-spacing:0px;writing-mode:lr-tb;text-anchor:start;fill:#ffffff;fill-opacity:1;stroke:none;stroke-width:1px;stroke-linecap:butt;stroke-linejoin:miter;stroke-opacity:1"
     d="m 20.348449,60.126184 q 0.09546,0.01735 0.210024,0.01735 0.114558,0 0.210023,0 0.801909,0 1.336516,-0.277603 0.553699,-0.277602 0.878281,-0.763406 0.343675,-0.485805 0.477328,-1.14511 0.152744,-0.676656 0.152744,-1.474763 0,-0.694006 -0.114558,-1.353312 -0.114558,-0.659306 -0.400956,-1.16246 -0.286395,-0.503154 -0.782815,-0.798107 -0.49642,-0.312303 -1.279236,-0.312303 -0.152745,0 -0.343676,0.01735 -0.19093,0 -0.343675,0.0347 l 0,7.217661 z M 26,56.482653 q 0,1.492113 -0.420047,2.550472 -0.400955,1.041009 -1.126492,1.700315 -0.725537,0.659305 -1.73747,0.971608 Q 21.72315,62 20.520287,62 19.890215,62 19.279237,61.930599 18.687351,61.878545 18,61.739748 L 18,51.260255 Q 18.801909,51.104104 19.508353,51.052054 20.214797,51 20.825775,51 q 1.164679,0 2.119333,0.312303 0.973746,0.312303 1.642004,0.988958 0.668258,0.659306 1.031026,1.700315 Q 26,55.025235 26,56.482648 Z" />
  <path
     inkscape:connector-curvature="0"
     id="path4583"
     style="font-style:normal;font-variant:normal;font-weight:bold;font-stretch:normal;font-size:medium;line-height:125%;font-family:'Ubuntu Mono';-inkscape-font-specification:'Ubuntu Mono, Bold';text-align:start;letter-spacing:0px;word-spacing:0px;writing-mode:lr-tb;text-anchor:start;fill:#ffffff;fill-opacity:1;stroke:none;stroke-width:1px;stroke-linecap:butt;stroke-linejoin:miter;stroke-opacity:1"
     d="M 34.058823,62 Q 33.235293,60.169629 32.254901,58.357028 31.294117,56.526656 30.17647,54.696284 L 30.17647,62 28,62 l 0,-11 1.941176,0 q 0.54902,0.781906 1.098039,1.705978 0.549019,0.9063 1.058824,1.812601 0.529412,0.9063 0.960785,1.759289 0.450979,0.852989 0.764705,1.492731 L 33.823529,51 36,51 l 0,11 -1.941177,0 z" />
  <path
     inkscape:connector-curvature="0"
     id="path4585"
     style="font-style:normal;font-variant:normal;font-weight:bold;font-stretch:normal;font-size:medium;line-height:125%;font-family:'Ubuntu Mono';-inkscape-font-specification:'Ubuntu Mono, Bold';text-align:start;letter-spacing:0px;word-spacing:0px;writing-mode:lr-tb;text-anchor:start;fill:#ffffff;fill-opacity:1;stroke:none;stroke-width:1px;stroke-linecap:butt;stroke-linejoin:miter;stroke-opacity:1"
     d="m 43.217391,52.821983 q -0.805492,0 -1.354691,0.272446 -0.549199,0.272446 -0.915332,0.766254 -0.347825,0.476779 -0.512586,1.157894 -0.146453,0.664088 -0.146453,1.481425 0,1.890092 0.640733,2.792569 0.640732,0.885448 1.885583,0.885448 0.201374,0 0.439359,-0.01703 0.237987,-0.01702 0.43936,-0.05109 l 0,-3.848296 2.251717,0 0,5.26161 q -0.402746,0.136222 -1.263159,0.3065 Q 43.839817,62 42.631579,62 41.569794,62 40.709382,61.659443 39.867277,61.301857 39.263158,60.620742 38.659038,59.922601 38.329519,58.900929 38,57.86223 38,56.500001 38,55.1548 38.384438,54.133127 38.768879,53.094428 39.427917,52.396285 40.086956,51.698143 40.983981,51.357586 41.881007,51 42.906179,51 q 0.659039,0 1.171624,0.102168 0.530893,0.08514 0.915332,0.204334 0.384439,0.119196 0.622427,0.255418 Q 45.871854,51.698143 46,51.766254 l -0.585813,1.668731 q -0.402745,-0.238389 -0.988558,-0.425696 -0.585812,-0.187306 -1.208238,-0.187306 z" />
</svg>

<svg xmlns="http://www.w3.org/2000/svg" viewBox="0 0 64 64">
 <defs>
  
 </defs>
 <path d="m 10.672 0 c -1.375 0 -2.672 1.355 -2.672 2.789 l 0 58.42 c 0 1.355 1.375 2.789 2.672 2.789 l 42.656 0 c 1.297 0 2.672 -1.434 2.672 -2.789 l 0 -43.21 -18 -18 m -27.328 0" style="fill:#35a14c;fill-opacity:1;stroke:none;fill-rule:nonzero"/>
 <path d="m 42 18 14 14 0 -14 z m 0 0" style="fill:#000;fill-opacity:0.196;stroke:none;fill-rule:nonzero"/>
 <path d="m 38 0 17.984 18 -15.227 0 c -1.348 0 -2.758 -1.426 -2.758 -2.773 m 0 -15.227" style="fill:#fff;fill-opacity:0.392;stroke:none;fill-rule:nonzero"/>
 <g transform="matrix(0.80051185,0,0,0.80026785,12.788106,12.78717)" style="fill:#fff;fill-opacity:1">
  <g style="clip-path:url(#clipPath-258929573);fill:#fff">
   <!-- color: #3d3d3d -->
   <g style="fill:#fff">
    <path d="M 27.08,9.641 23.471,19.793 37.705,17.43 C 35.603,13.438 31.721,10.5 27.08,9.641 m 0,0" style="fill:#fff;stroke:none;fill-rule:nonzero"/>
    <path d="m 38.15 19.449 -10.738 1.988 9.199 10.98 c 2.457 -3.797 3.09 -8.586 1.527 -12.969 m 0.012 0" style="fill:#fff;stroke:none;fill-rule:nonzero"/>
    <path d="m 35.07 33.809 -7.121 -8.164 -5.05 13.344 c 4.566 0.195 9.09 -1.656 12.156 -5.18 m 0.012 0" style="fill:#fff;stroke:none;fill-rule:nonzero"/>
    <path d="m 20.922 38.36 3.617 -10.152 -14.242 2.363 c 2.109 3.996 5.996 6.934 10.625 7.789 m 0 0" style="fill:#fff;stroke:none;fill-rule:nonzero"/>
    <path d="M 9.852,28.559 20.586,26.571 11.387,15.591 C 8.934,19.392 8.297,24.177 9.86,28.56 m -0.008,0" style="fill:#fff;stroke:none;fill-rule:nonzero"/>
    <path d="m 12.926 14.207 7.121 8.164 5.05 -13.344 c -4.563 -0.195 -9.09 1.656 -12.152 5.18 m -0.016 0" style="fill:#fff;stroke:none;fill-rule:nonzero"/>
   </g>
  </g>
 </g>
 <path d="m 8 48 0 13.336 c 0 1.297 1.375 2.664 2.664 2.664 l 42.672 0 c 1.289 0 2.664 -1.367 2.664 -2.664 l 0 -13.336 m -48 0" style="fill:#000;fill-opacity:0.196;stroke:none;fill-rule:nonzero"/>
 <path d="m 20.348 60.13 q 0.095 0.017 0.21 0.017 0.115 0 0.21 0 0.802 0 1.337 -0.278 0.554 -0.278 0.878 -0.763 0.344 -0.486 0.477 -1.145 0.153 -0.677 0.153 -1.475 0 -0.694 -0.115 -1.353 -0.115 -0.659 -0.401 -1.162 -0.286 -0.503 -0.783 -0.798 -0.496 -0.312 -1.279 -0.312 -0.153 0 -0.344 0.017 -0.191 0 -0.344 0.035 l 0 7.218 z m 5.652 -3.644 q 0 1.492 -0.42 2.55 -0.401 1.041 -1.126 1.7 -0.726 0.659 -1.737 0.972 q -0.993 0.295 -2.196 0.295 -0.63 0 -1.241 -0.069 -0.592 -0.052 -1.279 -0.191 l 0 -10.479 q 0.802 -0.156 1.508 -0.208 0.706 -0.052 1.317 -0.052 q 1.165 0 2.119 0.312 0.974 0.312 1.642 0.989 0.668 0.659 1.031 1.7 q 0.382 1.024 0.382 2.481" style="fill:#fff;fill-opacity:1;stroke:none"/>
 <path d="m 34.06 62 q -0.824 -1.83 -1.804 -3.643 -0.961 -1.83 -2.078 -3.661 l 0 7.304 -2.176 0 l 0 -11 1.941 0 q 0.549 0.782 1.098 1.706 0.549 0.906 1.059 1.813 0.529 0.906 0.961 1.759 0.451 0.853 0.765 1.493 l 0 -6.771 2.176 0 l 0 11 -1.941 0 z" style="fill:#fff;fill-opacity:1;stroke:none"/>
 <path d="m 43.22 52.822 q -0.805 0 -1.355 0.272 -0.549 0.272 -0.915 0.766 -0.348 0.477 -0.513 1.158 -0.146 0.664 -0.146 1.481 0 1.89 0.641 2.793 0.641 0.885 1.886 0.885 0.201 0 0.439 -0.017 0.238 -0.017 0.439 -0.051 l 0 -3.848 2.252 0 0 5.262 q -0.403 0.136 -1.263 0.306 q -0.842 0.17 -2.05 0.17 -1.062 0 -1.922 -0.341 -0.842 -0.358 -1.446 -1.039 -0.604 -0.698 -0.934 -1.72 -0.33 -1.039 -0.33 -2.401 0 -1.345 0.384 -2.367 0.384 -1.039 1.043 -1.737 0.659 -0.698 1.556 -1.039 0.897 -0.358 1.922 -0.358 q 0.659 0 1.172 0.102 0.531 0.085 0.915 0.204 0.384 0.119 0.622 0.255 q 0.256 0.136 0.384 0.204 l -0.586 1.669 q -0.403 -0.238 -0.989 -0.426 -0.586 -0.187 -1.208 -0.187 z" style="fill:#fff;fill-opacity:1;stroke:none"/>
</svg>
